X:1
T:Teacher’s Dedication Hymn, SM
T:Teacher’s Dedication Hymn, SM
T:Frank Moore Jeffrey, 1911
T:Public Domain Courtesy of the Cyber Hymnal™
C:Frank Moore Jeffrey, 1911
Z:Public Domain
Z:Courtesy of the Cyber Hymnal™
%%score ( 1 2 ) ( 3 4 )
L:1/8
Q:1/4=96
M:3/4
K:Eb
V:1 treble 
V:2 treble 
V:3 bass 
V:4 bass 
V:1
 B,2 | [EG]3 [EG] [DF][B,E] | [DA]4 B,2 | [DA]3 [DA] [DG][DF] | [EB]4 [AB]2 | [Ge]3 [Gd] [Ed][Ec] | %6
 [=Ec][EG] [FA]2 C2 | [EG]3 [EB] [DG][DF] | E4 |] %9
V:2
 B,2 | x6 | x4 B,2 | x6 | x6 | x6 | x4 C2 | x6 | E4 |] %9
V:3
 [B,,B,]2 | [E,B,]3 [E,B,] [A,B,][G,B,] | [F,B,]4 [B,,B,]2 | [F,B,]3 [F,B,] B,[A,B,] | %4
 [G,B,]4 [F,D]2 | [E,B,]3 [E,B,] [A,=B,][A,C] | [C,G,][C,C] [F,C]2 [F,A,]2 | %7
 [B,,B,]3 [B,,G,] [B,,B,][B,,A,] | [E,G,]4 |] %9
V:4
 x2 | x6 | x6 | x4 B, x | x6 | x6 | x6 | x6 | x4 |] %9

